assets/images/script/s-1-beg.svg

<svg fill="none" height="156" viewBox="0 0 256 156" width="256" xmlns="http://www.w3.org/2000/svg"><path d="m4.35211 102.293c0-.162.0793-2.4767-.5719-1.972-2.967735 2.302 3.42362 16.091 4.32102 18.175 13.44267 31.211 62.03987 39.335 89.53387 21.07 17.1259-11.377 19.4899-30.459 18.9999-49.1636-.517-19.7322-3.92-51.3297-5.274-71.0209-.364-5.2827-.636-10.54107-.636-15.8334 0-3.907268.256 7.8157.636 11.7056 2.602 26.6687 4.907 66.9746 9.649 92.8303 11.506 37.211 58.933 53.176 91.25 41.211 13.842-5.125 27.244-12.893 34.695-25.752 5.614-9.689 10.132-24.5864.127-33.2689-10.333-8.9673-25.65-3.7297-31.137 7.7627-6.639 13.9072 9.678 25.3572 18.047 33.7612" stroke="#000" stroke-linecap="round" stroke-width="5"/></svg>

<svg width="256" height="156" viewBox="0 0 256 156" fill="none" xmlns="http://www.w3.org/2000/svg">
<path d="M4.35211 102.293C4.35211 102.131 4.43141 99.8163 3.78021 100.321C0.812475 102.623 7.20383 116.412 8.10123 118.496C21.5439 149.707 70.1411 157.831 97.6351 139.566C114.761 128.189 117.125 109.107 116.635 90.4024C116.118 70.6702 112.715 39.0727 111.361 19.3815C110.997 14.0988 110.725 8.84043 110.725 3.5481C110.725 -0.359168 110.981 11.3638 111.361 15.2537C113.963 41.9224 116.268 82.2283 121.01 108.084C132.516 145.295 179.943 161.26 212.26 149.295C226.102 144.17 239.504 136.402 246.955 123.543C252.569 113.854 257.087 98.9566 247.082 90.2741C236.749 81.3068 221.432 86.5444 215.945 98.0368C209.306 111.944 225.623 123.394 233.992 131.798" stroke="black" stroke-width="5" stroke-linecap="round"/>
</svg>
